static/logos/gitlab-glyph-color.svg

<svg width="50" height="49" viewBox="0 0 50 49" fill="none" xmlns="http://www.w3.org/2000/svg">
<g clip-path="url(#clip0_1_2649)">
<path d="M49.0456 19.2262L48.9787 19.0478L42.2271 1.43637C42.0905 1.09056 41.8472 0.797213 41.5329 0.598786C41.2982 0.448585 41.0316 0.355442 40.7545 0.326821C40.4775 0.298198 40.1975 0.334894 39.937 0.433968C39.6768 0.533044 39.4431 0.691738 39.2552 0.897337C39.0673 1.10293 38.93 1.34971 38.8545 1.61789L34.2972 15.5701H15.8418L11.2844 1.61789C11.2084 1.35011 11.0709 1.1038 10.8828 0.898595C10.6947 0.693391 10.4613 0.534977 10.2011 0.435983C9.94094 0.33699 9.66126 0.300157 9.38432 0.328423C9.1074 0.356691 8.84091 0.44927 8.6061 0.598786C8.29167 0.797213 8.04849 1.09056 7.91183 1.43637L1.16344 19.051L1.09337 19.2262C0.121799 21.7654 0.00210515 24.5516 0.752335 27.1648C1.50256 29.7779 3.08204 32.0764 5.25263 33.7134L5.27811 33.7325L5.3354 33.7771L15.6061 41.4745L20.7016 45.3248L23.7972 47.6656C24.1604 47.9401 24.6032 48.0885 25.0583 48.0885C25.5135 48.0885 25.9563 47.9401 26.3195 47.6656L29.415 45.3248L34.5106 41.4745L44.8545 33.7325L44.8832 33.7102C47.0536 32.0739 48.6332 29.7761 49.3842 27.1636C50.1348 24.5511 50.016 21.7653 49.0456 19.2262Z" fill="#E24329"/>
<path d="M49.0463 19.2262L48.9794 19.0479C45.6899 19.7229 42.5902 21.1171 39.903 23.1307L25.0781 34.3408L34.5176 41.4746L44.8616 33.7325L44.8902 33.7102C47.0597 32.073 48.638 29.7749 49.3877 27.1624C50.137 24.55 50.0173 21.7646 49.0463 19.2262Z" fill="#FC6D26"/>
<path d="M15.6016 41.4746L20.6971 45.3249L23.7926 47.6657C24.1559 47.9402 24.5986 48.0886 25.0538 48.0886C25.509 48.0886 25.9517 47.9402 26.3149 47.6657L29.4105 45.3249L34.506 41.4746L25.0665 34.3408L15.6016 41.4746Z" fill="#FCA326"/>
<path d="M10.2367 23.1306C7.55024 21.1181 4.45177 19.7249 1.16344 19.051L1.09337 19.2262C0.121799 21.7654 0.00210515 24.5516 0.752335 27.1648C1.50256 29.7779 3.08204 32.0764 5.25263 33.7134L5.27811 33.7325L5.3354 33.777L15.6061 41.4745L25.052 34.3407L10.2367 23.1306Z" fill="#FC6D26"/>
</g>
<defs>
<clipPath id="clip0_1_2649">
<rect width="50" height="48.0892" fill="white"/>
</clipPath>
</defs>
</svg>

<svg xmlns="http://www.w3.org/2000/svg" width="65.306" height="64" fill="none" viewBox="0 0 50 49"><g clip-path="url(#a)"><path fill="#E24329" d="m49.046 19.226-.067-.178-6.752-17.612a1.784 1.784 0 0 0-3.373.182L34.297 15.57H15.842L11.284 1.618a1.786 1.786 0 0 0-3.372-.182L1.163 19.051l-.07.175a12.535 12.535 0 0 0 4.16 14.487l.025.02.057.044 10.271 7.697 5.096 3.85 3.095 2.342a2.092 2.092 0 0 0 2.523 0l3.095-2.341 5.096-3.85 10.343-7.742.03-.023a12.536 12.536 0 0 0 4.162-14.484Z"/><path fill="#FC6D26" d="m49.046 19.226-.067-.178c-3.29.675-6.389 2.07-9.076 4.083L25.078 34.34l9.44 7.134 10.344-7.742.028-.023a12.534 12.534 0 0 0 4.156-14.484Z"/><path fill="#FCA326" d="m15.602 41.475 5.095 3.85 3.096 2.34a2.092 2.092 0 0 0 2.522 0l3.095-2.34 5.096-3.85-9.44-7.134-9.464 7.134Z"/><path fill="#FC6D26" d="M10.237 23.13a22.752 22.752 0 0 0-9.074-4.079l-.07.175a12.535 12.535 0 0 0 4.16 14.487l.025.02.057.044 10.271 7.697 9.446-7.133-14.815-11.21Z"/></g><defs><clipPath id="a"><path fill="#fff" d="M0 0h50v48.089H0z"/></clipPath></defs></svg>
